X: 37672
T: Snowy Path, The
R: slip jig
M: 9/8
K: Dmajor
"D"F2A "Bm"B2F "D"A2F|"Em"G2B "Bm"d2e "G"dBG|"D"F2A"Bm"B2F "D"A2F|
[1 "Em"E2D "Em"E2F "Em"GFE:|2 "Em"E2D "Em"E2F "Em"GAB||
|:"F#m"c3 "A"c2e "Bm"d2c|"Em"B2G "Bm"B2c "Bm"d2e|
[1 "Bm"f3 "Bm"f2e "Bm"d2B|"Am"=c3 "Am"c3 "Am"cBA:|2 "D"d2A "Bm"B2F "D"A2F|"Em"E2D "Em"E2F "Em"GFE||

